X:1
T:Keep Me Wholly Thine
T:Keep Me Wholly Thine
T:William Howard Doane
T:Frances Jane (Fanny) Crosby, 1905
T:Public Domain Courtesy of the Cyber Hymnal™
C:William Howard Doane
Z:Public Domain
Z:Courtesy of the Cyber Hymnal™
%%score ( 1 2 ) ( 3 4 )
L:1/8
Q:1/4=110
M:4/4
K:Ab
V:1 treble 
V:2 treble 
V:3 bass 
V:4 bass 
V:1
 [CE]2 [CA]>[DB] [Ec]2 [EB][EA] | [FB]2 [FA][DF] [DF] [CE]3 | [CE]2 [DF][CE] [CA]2 [Fd]2 | %3
w: 1.~Now to the fount- ain of|life I am go- ing,|Je- sus, I pray Thee,|
w: 2.~All I sur- ren- der to|Thee, O my Sav- ior,|All to Thy sov- ereign|
w: 3.~O what a full- ness of|love He has grant- ed,|O what a rap- ture,|
w: 4.~Now I am trust- ing the|words of Thy prom- ise,|Thou hast re- deemed me,|
 [Ec]3 [DB] [CA]4 ||"^Refrain" [DF] [FA]3 [FA]4 | [EA] [Ec]3 [Ec]4 | [EB]3 [EB] [EA]2 [EB]2 | %7
w: make me Thine.||||
w: will di- vine.|Whol- ly Thine,|whol- ly Thine,|Seal and keep me|
w: Lord, is mine.||||
w: I am Thine.||||
 [Ec]8 | [DF] [FA]3 [FA]4 | [EA] [Ec]3 [Ec]4 | [DB]3 [CA] [DB] [Dc]3 | A8 |] %12
w: |||||
w: Thine;|Whol- ly Thine,|whol- ly Thine,|Keep me whol- ly|Thine.|
w: |||||
w: |||||
V:2
 x8 | x8 | x8 | x8 || x8 | x8 | x8 | x8 | x8 | x8 | x8 | (C2 DD C4) |] %12
V:3
 [A,,A,]2 [A,,E,]>[A,,E,] [A,,A,]2 [B,,G,][C,A,] | [D,D]2 [D,D][D,A,] [A,,A,] [A,,A,]3 | %2
w: ~ ~ ~ ~ ~ ~|~ ~ ~ ~ ~|
 [A,,A,]2 [A,,A,][A,,A,] [F,A,]2 [D,A,]2 | [E,A,]3 [E,G,] [A,,A,]4 || %4
w: ~ ~ ~ ~ ~|~ ~ ~|
 [D,A,][D,D][D,D][D,D] [D,D]4 | [A,,C][A,,A,][A,,A,][A,,A,] [A,,A,]4 | %6
w: ~ ~ whol- ly ~|~ ~ whol- ly ~|
 [E,G,]3 [E,D] [E,C]2 [E,G,]2 | [A,,A,]2 [A,,A,]2 [A,,A,]4 | [D,A,][D,D][D,D][D,D] [D,D]4 | %9
w: ~ ~ ~ ~|whol- ly Thine;|~ ~ whol- ly ~|
 [A,,C][A,,A,][A,,A,][A,,A,] [A,,A,]4 | [E,G,]3 [E,A,] [E,G,] [E,G,]3 | A,2 F,F, E,4 |] %12
w: ~ ~ whol- ly ~|~ ~ ~ ~|~ whol- ly Thine.|
V:4
 x8 | x8 | x8 | x8 || x8 | x8 | x8 | x8 | x8 | x8 | x8 | A,,8 |] %12

